X: 6600
T: Caught In The Middle
R: reel
M: 4/4
K: Dmajor
ag|:fgaf gecA|defd AGFA|G2ed cABc|defg e2de|
fgaf gecA|defd AGFA|G2ed cABc|1 dBAF D2ag:|2 dBAF D2AG||
|:FA~A2 GBdB|ceAc dBAG|FA~A2 GBdf|gefd ecAG|
FA~A2 GBdB|ceAc defg|a2fa gecA|1 dBAF D2AG:|2 dBAF D2||

